fonts/icomoon.svg

<?xml version="1.0" standalone="no"?>
<!DOCTYPE svg PUBLIC "-//W3C//DTD SVG 1.1//EN" "http://www.w3.org/Graphics/SVG/1.1/DTD/svg11.dtd" >
<svg xmlns="http://www.w3.org/2000/svg">
<metadata>Generated by IcoMoon</metadata>
<defs>
<font id="icomoon" horiz-adv-x="512">
<font-face units-per-em="512" ascent="480" descent="-32" />
<missing-glyph horiz-adv-x="512" />
<glyph unicode="&#x20;" d="" horiz-adv-x="256" />
<glyph unicode="&#xe000;" d="M192 160l64 32 224 224-32 32-224-224-32-64zM144.65 46.451c-15.816 33.364-32.833 50.381-66.198 66.197l49.548 136.396 64 38.956 192 192h-96l-192-192-96-320 320 96 192 192v96l-192-192-38.956-64z" />
<glyph unicode="&#xe001;" d="M256 384c-27.466 0-53.994-4.331-78.847-12.871-23.356-8.027-44.153-19.372-61.814-33.722-33.107-26.899-51.339-61.492-51.339-97.407 0-20.149 5.594-39.689 16.626-58.076 11.376-18.96 28.491-36.293 49.494-50.126 15.178-9.996 25.39-25.974 28.088-43.947 0.9-5.992 1.464-12.044 1.685-18.062 3.735 3.097 7.375 6.423 10.94 9.988 12.077 12.076 28.39 18.745 45.251 18.745 2.684 0 5.381-0.168 8.078-0.512 10.487-1.333 21.199-2.010 31.838-2.010 27.467 0 53.994 4.33 78.847 12.871 23.356 8.027 44.153 19.372 61.814 33.722 33.107 26.898 51.339 61.492 51.339 97.407s-18.232 70.508-51.339 97.407c-17.661 14.349-38.458 25.695-61.814 33.722-24.853 8.54-51.38 12.871-78.847 12.871zM256 448v0c141.385 0 256-93.125 256-208s-114.615-208-256-208c-13.578 0-26.905 0.867-39.912 2.522-54.989-54.989-120.625-64.85-184.088-66.298v13.458c34.268 16.789 64 47.37 64 82.318 0 4.877-0.379 9.665-1.082 14.348-57.898 38.132-94.918 96.377-94.918 161.652 0 114.875 114.615 208 256 208z" />
<glyph unicode="&#xe002;" d="M512 224l-256 256v-160h-255.999l-0.001-192h256v-160z" />
<glyph unicode="&#xe003;" d="M496 288h-176v176c0 8.836-7.164 16-16 16h-96c-8.836 0-16-7.164-16-16v-176h-176c-8.836 0-16-7.164-16-16v-96c0-8.836 7.164-16 16-16h176v-176c0-8.836 7.164-16 16-16h96c8.836 0 16 7.164 16 16v176h176c8.836 0 16 7.164 16 16v96c0 8.836-7.164 16-16 16z" />
<glyph unicode="&#xe004;" d="M288 448c123.712 0 224-100.288 224-224s-100.288-224-224-224v48c47.012 0 91.209 18.307 124.451 51.549s51.549 77.439 51.549 124.451c0 47.011-18.307 91.209-51.549 124.451s-77.439 51.549-124.451 51.549c-47.011 0-91.209-18.307-124.451-51.549-25.57-25.569-42.291-57.623-48.653-92.451h93.104l-112-128-112 128h82.285c15.53 108.551 108.869 192 221.715 192zM384 256v-64h-128v160h64v-96z" />
</font></defs></svg>

<?xml version="1.0" standalone="no"?>
<!DOCTYPE svg PUBLIC "-//W3C//DTD SVG 1.1//EN" "http://www.w3.org/Graphics/SVG/1.1/DTD/svg11.dtd" >
<svg xmlns="http://www.w3.org/2000/svg">
<metadata>
This is a custom SVG font generated by IcoMoon.
<iconset grid="16"></iconset>
</metadata>
<defs>
<font id="icomoon" horiz-adv-x="512" >
<font-face units-per-em="512" ascent="480" descent="-32" />
<missing-glyph horiz-adv-x="512" />
<glyph class="hidden" unicode="&#xf000;" d="M0,480L 512 -32L0 -32 z" horiz-adv-x="0" />
<glyph unicode="&#xe000;" d="M 192,160l 64,32L 480,416l-32,32L 224,224L 192,160z M 144.65,46.451c-15.816,33.364-32.833,50.381-66.198,66.197L 128,249.044
	L 192,288L 384,480l-96,0 L 96,288L0-32l 320,96l 192,192l0,96 L 320,160l-38.956-64"  />
<glyph unicode="&#xe001;" d="M 256,384 C 228.534,384 202.006,379.669 177.153,371.129 C 153.797,363.102 133,351.757 115.339,337.407 C 82.232,310.508 64,275.915 64,240 C 64,219.851 69.594,200.311 80.626,181.924 C 92.002,162.964 109.117,145.631 130.12,131.798 C 145.298,121.802 155.51,105.824 158.208,87.851 C 159.108,81.859 159.672,75.807 159.893,69.789 C 163.628,72.886 167.268,76.212 170.833,79.777 C 182.91,91.853 199.223,98.522 216.084,98.522 C 218.768,98.522 221.465,98.354 224.162,98.010 C 234.649,96.677 245.361,96 256,96 C 283.467,96 309.994,100.33 334.847,108.871 C 358.203,116.898 379,128.243 396.661,142.593 C 429.768,169.491 448,204.085 448,240 C 448,275.915 429.768,310.508 396.661,337.407 C 379,351.756 358.203,363.102 334.847,371.129 C 309.994,379.669 283.467,384 256,384 Z M 256,448 L 256,448 C 397.385,448 512,354.875 512,240 C 512,125.124 397.385,32 256,32 C 242.422,32 229.095,32.867 216.088,34.522 C 161.099-20.467 95.463-30.328 32-31.776 L 32-18.318 C 66.268-1.529 96,29.052 96,64 C 96,68.877 95.621,73.665 94.918,78.348 C 37.020,116.48 0,174.725 0,240 C 0,354.875 114.615,448 256,448 Z"  />
<glyph unicode="&#xe002;" d="M 512,224L 256,480L 256,320L 0.001,320L0,128L 256,128L 256-32 z"  />
<glyph unicode="&#xe003;" d="M 496,288L 320,288 L 320,464 c0,8.836-7.164,16-16,16l-96,0 c-8.836,0-16-7.164-16-16l0-176 L 16,288 c-8.836,0-16-7.164-16-16l0-96 
	c0-8.836, 7.164-16, 16-16l 176,0 l0-176 c0-8.836, 7.164-16, 16-16l 96,0 c 8.836,0, 16,7.164, 16,16L 320,160 l 176,0 c 8.836,0, 16,7.164, 16,16l0,96 
	C 512,280.836, 504.836,288, 496,288z"  />
<glyph unicode="&#x20;" horiz-adv-x="256" />
</font></defs></svg>
